X: 112
T: Twinkle, Twinkle, Little Star
C: Elliott.
Q: "Allegretto moderato."
%R: air, march
B: "The Everyday Song Book", 1927
F: http://www.library.pitt.edu/happybirthday/pdf/The_Everyday_Song_Book.pdf
Z: 2017 John Chambers <jc:trillian.mit.edu>
M: 2/4
L: 1/8
K: C
% - - - - - - - - - - - - - - - - - - - - - - - - - - - - -
!mf!c A | G F E D | C2 C C | C D E F | G2 ||
w: 1.~Twin-kle, twin-kle, lit-tle star, How I won-der what you are!
w: 2.~When the blaz-ing sun is gone,    When he noth-ing shines up-on,
w: 3.~When the trav-'ler in the dark    Thanks you for your ti-ny spark,
w: 4.~In the dark blue sky you keep,    Oft-en through my cur-tains peep,
w: 5.~As your bright and ti-ny spark    Lights the trav-'ler in the dark,
%
G A | G A G c | e2 e d | c A "^poco rit."G G | G2 |]
w: Up a-bove the world so high,      Like a dia-mond in the sky.
w: Then you show your lit-tle light, Twin-kle, twin-kle, all the night!
w: How could he see where to go,     If you did not twin-kle so?
w: For you nev-er shut your eye      Till the sun is in the sky.
w: Though I know not what you are,   Twin-kle, twin-kle, lit-tle star.
% - - - - - - - - - - - - - - - - - - - - - - - - - - - - -

%%sep 1 1 500
%%sep 1 1 500

